X:455
T: Coleman's #2
S: "Music from Ireland 3" (Bulmer & Sharpley)
Z: B.Black
R: slipjig
M: 9/8
L: 1/8
K: Edor
B2E E2F G2A|Bcd e2c d2A|B2E E2F G2A|Bcd A2F G2E :|
g2e e2f e2g|f2d d2c d2f|g2e e2f e2d|Bcd A2F G2E :|
